X: 1916
T: Tanami Schottische
C:Bob Rummery, Sorrento, WA
B: australian traditional tunes wiki
M:4/4
L:1/8
R: Schottische
Q: 1/4=100
K:G
V:1 
G>B|"G"d2 (3dcB "C"c2e2|"G"{B}d2g>dB2 (3BcB |"D"A2A>B c>B c>d|"C"e2d2B2G>B|
"G"d2 (3dcB "C"c2e2|"G"{B}d2g>dB2 (3BcB|"D"A2A2d>e d>c|"G"B>A "D7"G>F "G"G4:|
|:"C"{B}c2c>d e>f g>a|"G"b2 (3bag d4|"D7"d>e f>g a>d e>f|"G"g>a b<g "G7"d4|
"C"c>B c>d e>f g>a|"G"b2 (3bag d4|"D"d>e f>e (3ded (3cBA|"G"G2"D7"G2"G"G2z2:|
% abcbook-tune_id 6342d5bef9b130f7e70048d8


% abcbook-boost 0
% abcbook-tablature 
% abcbook-transpose 
% abcbook-lastupdated 1665324487605
% abcbook-soundfonts 
% abcbook-repeats 1
% NFF Book 2008

